X:1
T:Lift Him Up
T:Lift Him Up
T:Benjamin Burke Beall
T:Johnson Oatman, Jr., 1903
T:Public Domain Courtesy of the Cyber Hymnal™
T:Public Domain Courtesy of the Cyber Hymnal™
C:Benjamin Burke Beall
Z:Public Domain
Z:Courtesy of the Cyber Hymnal™
%%score ( 1 2 ) ( 3 4 )
L:1/8
Q:1/4=110
M:4/4
K:Ab
V:1 treble 
V:2 treble 
V:3 bass 
V:4 bass 
V:1
 [CE][CE] | [CA]2 [CA]2 [DA] [DG]3 | [DG][DG][DF][DG] !fermata![CA]2 [EA][EB] | %3
w: 1.~How to|reach the mass- es,|men of ev- ery birth, For an|
w: 2.~Oh! the|world is hun- gry|for the Liv- ing Bread, Lift the|
w: 3.~Don’t ex-|alt the preach- er,|don’t ex- alt the pew, Preach the|
w: 4.~Lift Him|up by liv- ing|as a Christ- ian ought, Let the|
 [Ec] [Ec]3 [Ec][EB][EA][EB] | [Ec]6 (cd) | [Ae]3 [Ae] [Ae][Ac][EA][Ac] | %6
w: an- swer, Je- sus gave the|key: “And *|I, if I be lift- ed|
w: Sav- ior up for them to|see; Trust *|Him, and do not doubt the|
w: Gos- pel sim- ple, full and|free; Prove *|Him and you will find that|
w: world in you the Sav- ior|see; Then *|men will glad- ly fol- low|
 [Ae]2 [Ge]>[Ge] [Ae]2 [Gd]2 | [Ac]2 [FB]2 [EA]2 [EG]>[EG] | [EA]6 ||"^Refrain" [CE]>[CE] | %10
w: up from the earth, Will|draw all men un- to|Me.”||
w: words that He said, “I’ll|draw all men un- to|Me.”|Lift Him|
w: prom- ise is true, “I’ll|draw all men un- to|Me.”||
w: Him Who once taught, “I’ll|draw all men un- to|Me.”||
 A4- [EA]2 [EA]>[EB] | c2 d2 [Ac]2 [Ae]>[Ae] | [Af]2 [Ae]>[Ae] [Gd]2 [Ac]2 | [GB]6 (cd) | %14
w: ||||
w: up, Lift Him up,|* Still He speaks from|* e- ter- ni- ty:|“And I, *|
w: ||||
w: ||||
 [Ae]3 [Ae] [Ae][Ac][EA][Ac] | [Ae]2 [Ge]>[Ge] [Ae]2 [Gd]2 | [Ac]2 [FB]2 [EA]2 [EG]>[EG] | [EA]6 |] %18
w: ||||
w: if I be lift- ed up|from the earth, Will draw|all men un- to Me.”||
w: ||||
w: ||||
V:2
 x2 | x8 | x8 | x8 | x6 A2 | x8 | x8 | x8 | x6 || x2 | E>EF>F x4 | A>AA>A x4 | x8 | x6 A2 | x8 | %15
 x8 | x8 | x6 |] %18
V:3
 [A,,A,][A,,A,] | [A,,E,]2 [A,,E,]2 [B,,E,] [B,,E,]3 | %2
w: ~ ~|~ ~ ~ ~|
 [E,B,][E,B,][E,B,][E,B,] !fermata![A,,A,]2 [C,A,][E,G,] | A, A,3 A,[E,G,][C,A,][E,G,] | %4
w: ~ ~ ~ ~ ~ ~ ~|~ ~ ~ ~ ~ ~|
 A,6 (A,B,) | [A,C]3 [A,C] [A,C][A,E][A,C][A,E] | [A,C]2 [B,D]>[B,D] [CE]2 [B,E]2 | %7
w: ~ ~ *|~ ~ ~ ~ ~ ~|~ ~ ~ ~ ~|
 [A,E]2 [D,D]2 [E,C]2 [E,B,]>[E,B,] | [A,,C]6 || [A,,A,]>[A,,A,] | %10
w: ~ ~ ~ ~ ~|~|Lift the|
 [A,,C]>[A,,C] [D,D]>[D,D] [A,,C]2 [A,C]>[A,D] | [A,E]>[A,E] [D,F]>[D,F] [A,E]2 [CE]>[CE] | %12
w: pre- cious Sav- ior up, Lift the|pre- cious Sav- ior up, * *|
 D2 [CE]>[CE] [B,E]2 [A,E]2 | [E,E]6 (A,B,) | [A,C]3 [A,C] [A,C][A,E][A,C][A,E] | %15
w: |||
 [A,C]2 [B,D]>[B,D] [CE]2 [B,E]2 | [A,E]2 [D,D]2 [E,C]2 [E,B,]>[E,B,] | [A,,C]6 |] %18
w: |||
V:4
 x2 | x8 | x8 | A, A,3 A, x3 | A,6 A,2 | x8 | x8 | x8 | x6 || x2 | x8 | x8 | D2 x6 | x6 A,2 | x8 | %15
 x8 | x8 | x6 |] %18

